src/icons/asset-management/uniqname_icon.svg

<svg xmlns="http://www.w3.org/2000/svg" width="14" height="14" fill="none" viewBox="0 0 14 14">
  <path stroke="#212121" stroke-linecap="round" stroke-linejoin="round" stroke-width=".875" d="M9.18765 3.5c0 .58016-.23047 1.13656-.64071 1.5468-.41023.41023-.96663.6407-1.54679.6407-.58016 0-1.13656-.23047-1.5468-.6407-.41023-.41024-.6407-.96664-.6407-1.5468 0-.58016.23047-1.13656.6407-1.5468.41024-.41023.96664-.6407 1.5468-.6407.58016 0 1.13656.23047 1.54679.6407.41024.41024.64071.96664.64071 1.5468Zm-6.56192 8.2355c.01875-1.1478.48787-2.24224 1.30619-3.04731.81832-.80506 1.92028-1.25625 3.06823-1.25625 1.14795 0 2.24991.45119 3.06825 1.25625.8183.80507 1.2874 1.89951 1.3062 3.04731-1.3724.6293-2.8647.954-4.37445.952-1.561 0-3.04267-.3407-4.37442-.952Z"/>
</svg>

<svg width="14" height="14" viewBox="0 0 14 14" fill="none" xmlns="http://www.w3.org/2000/svg">
<path d="M9.18765 3.5C9.18765 4.08016 8.95718 4.63656 8.54694 5.0468C8.13671 5.45703 7.58031 5.6875 7.00015 5.6875C6.41999 5.6875 5.86359 5.45703 5.45335 5.0468C5.04312 4.63656 4.81265 4.08016 4.81265 3.5C4.81265 2.91984 5.04312 2.36344 5.45335 1.9532C5.86359 1.54297 6.41999 1.3125 7.00015 1.3125C7.58031 1.3125 8.13671 1.54297 8.54694 1.9532C8.95718 2.36344 9.18765 2.91984 9.18765 3.5ZM2.62573 11.7355C2.64448 10.5877 3.1136 9.49326 3.93192 8.68819C4.75024 7.88313 5.8522 7.43194 7.00015 7.43194C8.1481 7.43194 9.25006 7.88313 10.0684 8.68819C10.8867 9.49326 11.3558 10.5877 11.3746 11.7355C10.0022 12.3648 8.5099 12.6895 7.00015 12.6875C5.43915 12.6875 3.95748 12.3468 2.62573 11.7355Z" stroke="#212121" stroke-width="0.875" stroke-linecap="round" stroke-linejoin="round"/>
</svg>
